X:1
T:Odessa, 77.75
T:Odessa, 77.75
T:William Fiske Sherwin, 1881
T:Public Domain Courtesy of the Cyber Hymnal™
C:William Fiske Sherwin, 1881
Z:Public Domain
Z:Courtesy of the Cyber Hymnal™
%%score ( 1 2 ) ( 3 4 )
L:1/8
Q:1/4=103
M:6/8
K:A
V:1 treble 
V:2 treble 
V:3 bass 
V:4 bass 
V:1
 [CE]2 [CE] [DF]2 [CE] | [Ec]2 [DB] [CA]3 | [B,G]2 [CA] [EB]2 [Ec] | [Ed]2 [Ec] [EB]3 | %4
 [Ec]2 [Ed] [Ae]2 [Ec] | [FB]2 [FA] [DF]3 | E2 [CE] [EA]2 [EG] | [EA]3- [EA]2 z |] %8
V:2
 x6 | x6 | x6 | x6 | x6 | x6 | E2 x4 | x6 |] %8
V:3
 [A,,A,]2 [A,,A,] [A,,A,]2 [A,,A,] | [E,A,]2 [E,G,] [A,,A,]3 | E,2 E, [E,G,]2 [E,A,] | %3
 [E,B,]2 [E,A,] [E,G,]3 | A,2 [A,B,] [A,C]2 A, | [D,A,]2 [D,A,] [D,A,]3 | %6
 [C,A,]2 [A,,A,] [E,C]2 [E,D] | [A,,C]3- [A,,C]2 z |] %8
V:4
 x6 | x6 | E,2 E, x3 | x6 | A,2 x A, x2 | x6 | x6 | x6 |] %8

